img/tooltip.svg

<svg fill="none" height="16" viewBox="0 0 16 16" width="16" xmlns="http://www.w3.org/2000/svg"><path d="m15.5 8c0 4.1421-3.3579 7.5-7.5 7.5-4.14214 0-7.5-3.3579-7.5-7.5 0-4.14214 3.35786-7.5 7.5-7.5 4.1421 0 7.5 3.35786 7.5 7.5z" stroke="#9d5cd0"/><path d="m7.26154 6.4551h1.47692v6.5449h-1.47692zm.73846-1.55251c-.28718 0-.5282-.09133-.72308-.27398-.18461-.18264-.27692-.40588-.27692-.66971 0-.26382.09231-.48706.27692-.66971.19488-.19279.4359-.28919.72308-.28919s.52308.09132.70769.27397c.19487.1725.29231.39067.29231.65449 0 .27397-.09744.50736-.29231.70015-.18461.18265-.42051.27398-.70769.27398z" fill="#000"/></svg>

<svg width="16" height="16" viewBox="0 0 16 16" fill="none" xmlns="http://www.w3.org/2000/svg">
<path d="M15.5 8C15.5 12.1421 12.1421 15.5 8 15.5C3.85786 15.5 0.5 12.1421 0.5 8C0.5 3.85786 3.85786 0.5 8 0.5C12.1421 0.5 15.5 3.85786 15.5 8Z" stroke="#9D5CD0"/>
<path d="M7.26154 6.4551H8.73846V13H7.26154V6.4551ZM8 4.90259C7.71282 4.90259 7.4718 4.81126 7.27692 4.62861C7.09231 4.44597 7 4.22273 7 3.9589C7 3.69508 7.09231 3.47184 7.27692 3.28919C7.4718 3.0964 7.71282 3 8 3C8.28718 3 8.52308 3.09132 8.70769 3.27397C8.90256 3.44647 9 3.66464 9 3.92846C9 4.20243 8.90256 4.43582 8.70769 4.62861C8.52308 4.81126 8.28718 4.90259 8 4.90259Z" fill="black"/>
</svg>
